icons/svgs/user-plus-outline.svg

<svg width="25" height="24" viewBox="0 0 25 24" fill="none" xmlns="http://www.w3.org/2000/svg">
<path d="M5.625 7C5.625 8.13281 6.21094 9.14844 7.1875 9.73438C8.125 10.2812 9.33594 10.2812 10.3125 9.73438C11.25 9.14844 11.875 8.13281 11.875 7C11.875 5.90625 11.25 4.89062 10.3125 4.30469C9.33594 3.75781 8.125 3.75781 7.1875 4.30469C6.21094 4.89062 5.625 5.90625 5.625 7ZM13.75 7C13.75 8.79688 12.7734 10.4375 11.25 11.3359C9.6875 12.2344 7.77344 12.2344 6.25 11.3359C4.6875 10.4375 3.75 8.79688 3.75 7C3.75 5.24219 4.6875 3.60156 6.25 2.70312C7.77344 1.80469 9.6875 1.80469 11.25 2.70312C12.7734 3.60156 13.75 5.24219 13.75 7ZM10.5078 15.75H6.95312C4.375 15.75 2.26562 17.6641 1.91406 20.125H15.5469C15.1953 17.6641 13.0859 15.75 10.5078 15.75ZM6.95312 13.875H8.75H10.5078C14.375 13.875 17.5 17 17.5 20.8672C17.5 21.4922 16.9531 22 16.3281 22H1.13281C0.507812 22 0 21.4922 0 20.8672C0 17 3.08594 13.875 6.95312 13.875ZM19.6875 14.1875V11.6875H17.1875C16.6406 11.6875 16.25 11.2969 16.25 10.75C16.25 10.2422 16.6406 9.8125 17.1875 9.8125H19.6875V7.3125C19.6875 6.80469 20.0781 6.375 20.625 6.375C21.1328 6.375 21.5625 6.80469 21.5625 7.3125V9.8125H24.0625C24.5703 9.8125 25 10.2422 25 10.75C25 11.2969 24.5703 11.6875 24.0625 11.6875H21.5625V14.1875C21.5625 14.7344 21.1328 15.125 20.625 15.125C20.0781 15.125 19.6875 14.7344 19.6875 14.1875Z" fill="black"/>
</svg>

<svg xmlns="http://www.w3.org/2000/svg" width="24" height="24" fill="currentColor" class="icon-user-plus-outline" viewBox="0 0 24 24">
  <mask id="a" width="25" height="20" x="0" y="2" maskUnits="userSpaceOnUse" style="mask-type:alpha">
    <path d="M5.625 7c0 1.133.586 2.148 1.563 2.734.937.547 2.148.547 3.125 0 .937-.586 1.562-1.601 1.562-2.734 0-1.094-.625-2.11-1.562-2.695-.977-.547-2.188-.547-3.126 0C6.212 4.89 5.626 5.906 5.626 7m8.125 0c0 1.797-.977 3.438-2.5 4.336-1.562.898-3.477.898-5 0A4.97 4.97 0 0 1 3.75 7c0-1.758.938-3.398 2.5-4.297 1.523-.898 3.438-.898 5 0 1.523.899 2.5 2.54 2.5 4.297m-3.242 8.75H6.953c-2.578 0-4.687 1.914-5.039 4.375h13.633c-.352-2.46-2.461-4.375-5.04-4.375m-3.555-1.875h3.555a6.985 6.985 0 0 1 6.992 6.992c0 .625-.547 1.133-1.172 1.133H1.133A1.134 1.134 0 0 1 0 20.867C0 17 3.086 13.875 6.953 13.875m12.735.313v-2.5h-2.5c-.547 0-.938-.391-.938-.938 0-.508.39-.937.938-.937h2.5v-2.5c0-.508.39-.938.937-.938a.95.95 0 0 1 .938.938v2.5h2.5a.95.95 0 0 1 .937.937c0 .547-.43.938-.937.938h-2.5v2.5c0 .546-.43.937-.938.937-.547 0-.937-.39-.937-.937"/>
  </mask>
  <g mask="url(#a)">
    <path d="M0 0h24v24H0z"/>
  </g>
</svg>
